public/images/bg2.svg

<svg width="1920" height="1827" fill="none" xmlns="http://www.w3.org/2000/svg"><g filter="url(#a)"><path d="M0 0h1920v1737.99h-367.9l-106 89.01H476.93l-106.852-89.01H0V0z" fill="url(#b)" fill-opacity=".05"/><path d="M370.078 1737.49H.5V.5h1919v1736.99h-367.59l-.14.11-105.86 88.9H477.111l-106.713-88.9-.139-.11h-.181z" stroke="url(#c)"/></g><defs><linearGradient id="b" x1="288" y1="1079.97" x2="1541.68" y2="1153.28" gradientUnits="userSpaceOnUse"><stop stop-color="#CE43FF"/><stop offset="1" stop-color="#2DB3FF" stop-opacity=".9"/></linearGradient><linearGradient id="c" x1="44.805" y1="1507.19" x2="1898.37" y2="1476.4" gradientUnits="userSpaceOnUse"><stop stop-color="#E42BC8"/><stop offset=".529" stop-color="#5670FD"/><stop offset="1" stop-color="#1DCEF4"/></linearGradient><filter id="a" x="-10" y="-10" width="1940" height="1847" filterUnits="userSpaceOnUse" color-interpolation-filters="sRGB"><feFlood flood-opacity="0" result="BackgroundImageFix"/><feGaussianBlur in="BackgroundImage" stdDeviation="5"/><feComposite in2="SourceAlpha" operator="in" result="effect1_backgroundBlur_446_336"/><feBlend in="SourceGraphic" in2="effect1_backgroundBlur_446_336" result="shape"/></filter></defs></svg>

<svg width="1920" height="1827" viewBox="0 0 1920 1827" fill="none" xmlns="http://www.w3.org/2000/svg">
<g filter="url(#filter0_b_446_336)">
<path d="M0 0H402.671H509.171H1406.34H1512.34H1920V1737.99H1552.1L1446.1 1827H476.93L370.078 1737.99H0V0Z" fill="url(#paint0_linear_446_336)" fill-opacity="0.05"/>
<path d="M370.078 1737.49H0.5V0.5H402.671H509.171H1406.34H1512.34H1919.5V1737.49H1552.1H1551.91L1551.77 1737.6L1445.91 1826.5H477.111L370.398 1737.6L370.259 1737.49H370.078Z" stroke="url(#paint1_linear_446_336)"/>
</g>
<defs>
<filter id="filter0_b_446_336" x="-10" y="-10" width="1940" height="1847" filterUnits="userSpaceOnUse" color-interpolation-filters="sRGB">
<feFlood flood-opacity="0" result="BackgroundImageFix"/>
<feGaussianBlur in="BackgroundImage" stdDeviation="5"/>
<feComposite in2="SourceAlpha" operator="in" result="effect1_backgroundBlur_446_336"/>
<feBlend mode="normal" in="SourceGraphic" in2="effect1_backgroundBlur_446_336" result="shape"/>
</filter>
<linearGradient id="paint0_linear_446_336" x1="288" y1="1079.97" x2="1541.68" y2="1153.28" gradientUnits="userSpaceOnUse">
<stop stop-color="#CE43FF"/>
<stop offset="1" stop-color="#2DB3FF" stop-opacity="0.9"/>
</linearGradient>
<linearGradient id="paint1_linear_446_336" x1="44.8054" y1="1507.19" x2="1898.37" y2="1476.4" gradientUnits="userSpaceOnUse">
<stop stop-color="#E42BC8"/>
<stop offset="0.52934" stop-color="#5670FD"/>
<stop offset="1" stop-color="#1DCEF4"/>
</linearGradient>
</defs>
</svg>
